X: 148
T:Ma Navu
C:J.Spivak 1956
O:Israel
S:V. Pasternak : Great Songs of Israel
F: http://www.youtube.com/watch?v=8RokyvOEenA
F: http://www.youtube.com/watch?v=iQZY6T-GRbw
F: http://www.youtube.com/watch?v=isYj_Uat6jY
M:4/4
L:1/8
Q:1/4=60
K:Bm
 "Em"EB/2A/2 B>G "Am" AB "Em" GF/2E/2      | "Am" F/2G/2A "Em"GF/2E/2 F G2 F       |\
 "Em"EB/2A/2 B>G "Am" AB "Em" GF/2E/2      | "Am" F/2G/2A "Em"GF/2E/2 D E2 D/2C/2  |
|"Bm" DE "A" ^C>A, "D" D/2C/2D "Em" ED/2C/2|"D" DE "A" C>A, "Bm" D/2C/2 B,2 D/2C/2 |\
|"Bm" DE "A" ^C>A, "D" D/2C/2D "Em" ED/2C/2|"D" DE "A"^C>A, "Bm" D/2C/2 B,3        |



